!!!SOCIAL_FUNCTION:	songs for success in hunting
!!!PDT:	1956
!!!OTL: No_217_Feeding_the_Fire_(d).krn
!!!LANG: Non-Tone
!!!LING_GROUP: Muskogean
!!!REG: Florida
**kern
*staff1
=1-
*clefF4
*k[f#c#g#d#]
*M2/4
4r
8.r
16B\
=2
4B\
8A\L
8B\J
=3!|:
16A\LK
8.F#\J
4E\
=4||
*M5/8
8F#\L
(16E\L
16C#\)
32E\K
16.E\J
8BB\
16BB\Jk
16r
=5||
*M4/8
16E\LL
16E\JJ
16E\LL
16E\JJ
8.F#\L
16G#\Jk
=6||
(4F#\
8E\)
8r
=7||
*M3/4
8F#/L
8C#/J
16E\LL
16E\J
8C#\J
4C#/
=8||
*M2/4
16B\LK
8.B\J
8A\L
8B\J
=9:|!
8F#/L
8C#/J
16E\LL
16E\J
8C#\J
=10
4C#/
8A\L
8Fn\J
=11||
*M3/4
2.A\
=12
*M2/4
16Cn/LL
16C/J
8C/J
8Dn/L
8C/J
==
*-
